X: 225
T:Henry King's Reel
M:4/4
L:1/8
F:http://blackrosetheband.googlepages.com/ABCTUNES.ABC May 2009
C:as played by Trevor and Travis Stuart
K:G
DF|:G2 DCB,G, B,C|ECDG FDFG|A2 Ac BAFF|AcAF DFDF|
G2 DCB,G, B,C|ECDG FDFG|A2 Ac BAFF|AGGG G2DF:||
|:GzGz [G4B4]|[G6c6] [GB][GB]|[D3A3]G FDFG|AcAF DFDF|
[G,4G4] [G4B4]|[G6c6] {D}cB|ABAF DFAc|BG2GG2 DF:||

